X: 39173
T: Swim Upstream, The
R: jig
M: 6/8
K: Dmajor
AG|:FAE DAG|FAe dfd|gBa fdf|ceA GAE|
FAE DAG|FAe dfd|gBa fdA|1 BGE DAG:|2 BGE D2 A||
|:DAD AFE|DFA d2 f|gBa fdf|gbg cde|
[1 dAD AFE|DFA d2 f|gBa fdA|BGE D2 A:|
[2 dAd eAe|fAf gBc|dfb adA|BGE D3||

